assets/sonr-icons/settings.svg

<svg xmlns="http://www.w3.org/2000/svg" width="24" height="24" fill="none" viewBox="0 0 24 24"><path fill="#000" d="M11.5 2H12.5C13.329 2 14 2.671 14 3.5V3.865C14 4.093 14.155 4.291 14.373 4.359C14.844 4.505 15.296 4.694 15.725 4.92C15.927 5.027 16.177 4.997 16.338 4.835L16.596 4.577C17.182 3.991 18.131 3.991 18.717 4.577L19.424 5.284C20.01 5.87 20.01 6.819 19.424 7.405L19.166 7.663C19.005 7.824 18.975 8.074 19.081 8.276C19.308 8.705 19.496 9.158 19.642 9.629C19.71 9.847 19.907 10.002 20.136 10.002H20.501C21.33 10.002 22.001 10.673 22.001 11.502V12.502C22.001 13.331 21.33 14.002 20.501 14.002H20.136C19.908 14.002 19.71 14.157 19.642 14.375C19.496 14.846 19.308 15.298 19.081 15.727C18.974 15.929 19.005 16.179 19.166 16.34L19.424 16.598C20.01 17.184 20.01 18.133 19.424 18.719L18.717 19.426C18.131 20.012 17.182 20.012 16.596 19.426L16.338 19.168C16.177 19.007 15.927 18.977 15.725 19.083C15.296 19.309 14.844 19.498 14.373 19.644C14.155 19.711 14 19.909 14 20.138V20.502C14 21.331 13.329 22.002 12.5 22.002H11.5C10.671 22.002 10 21.331 10 20.502V20.138C10 19.91 9.84505 19.712 9.62705 19.644C9.15605 19.498 8.70405 19.309 8.27405 19.083C8.07205 18.976 7.82205 19.006 7.66105 19.168L7.40305 19.426C6.81705 20.012 5.86805 20.012 5.28205 19.426L4.57505 18.719C3.98905 18.133 3.98905 17.184 4.57505 16.598L4.83305 16.34C4.99405 16.179 5.02405 15.929 4.91805 15.727C4.69205 15.298 4.50305 14.846 4.35705 14.375C4.29005 14.157 4.09105 14.002 3.86305 14.002H3.49805C2.66905 14.002 1.99805 13.331 1.99805 12.502V11.502C1.99805 10.673 2.66905 10.002 3.49805 10.002H3.86305C4.09105 10.002 4.28905 9.847 4.35705 9.629C4.50305 9.158 4.69105 8.706 4.91805 8.276C5.02505 8.074 4.99505 7.824 4.83305 7.663L4.57505 7.405C3.98905 6.819 3.98905 5.87 4.57505 5.284L5.28205 4.577C5.86805 3.991 6.81705 3.991 7.40305 4.577L7.66105 4.835C7.82205 4.996 8.07205 5.026 8.27405 4.92C8.70305 4.694 9.15605 4.505 9.62705 4.359C9.84505 4.292 10 4.093 10 3.865V3.5C10 2.671 10.671 2 11.5 2ZM12 15C13.657 15 15 13.657 15 12C15 10.343 13.657 9 12 9C10.343 9 9.00005 10.343 9.00005 12C9.00005 13.657 10.343 15 12 15Z"/></svg>

<svg xmlns="http://www.w3.org/2000/svg" width="24" height="24" fill="none"><path fill="currentColor" d="M11.5 2h1A1.5 1.5 0 0 1 14 3.5v.365c0 .228.155.426.373.494q.707.22 1.352.561a.52.52 0 0 0 .613-.085l.258-.258a1.5 1.5 0 0 1 2.121 0l.707.707a1.5 1.5 0 0 1 0 2.121l-.258.258a.52.52 0 0 0-.085.613q.341.645.561 1.353a.52.52 0 0 0 .494.373h.365a1.5 1.5 0 0 1 1.5 1.5v1a1.5 1.5 0 0 1-1.5 1.5h-.365a.52.52 0 0 0-.494.373 8 8 0 0 1-.561 1.352.52.52 0 0 0 .085.613l.258.258a1.5 1.5 0 0 1 0 2.121l-.707.707a1.5 1.5 0 0 1-2.121 0l-.258-.258a.52.52 0 0 0-.613-.085 8 8 0 0 1-1.352.561.52.52 0 0 0-.373.494v.364a1.5 1.5 0 0 1-1.5 1.5h-1a1.5 1.5 0 0 1-1.5-1.5v-.364a.52.52 0 0 0-.373-.494 8 8 0 0 1-1.353-.561.52.52 0 0 0-.613.085l-.258.258a1.5 1.5 0 0 1-2.12 0l-.708-.707a1.5 1.5 0 0 1 0-2.121l.258-.258a.52.52 0 0 0 .085-.613 8 8 0 0 1-.561-1.352.52.52 0 0 0-.494-.373h-.365a1.5 1.5 0 0 1-1.5-1.5v-1a1.5 1.5 0 0 1 1.5-1.5h.365a.52.52 0 0 0 .494-.373q.22-.707.561-1.353a.52.52 0 0 0-.085-.613l-.258-.258a1.5 1.5 0 0 1 0-2.121l.707-.707a1.5 1.5 0 0 1 2.121 0l.258.258a.52.52 0 0 0 .613.085 8 8 0 0 1 1.353-.561.52.52 0 0 0 .373-.494V3.5A1.5 1.5 0 0 1 11.5 2m.5 13a3 3 0 1 0 0-6 3 3 0 0 0 0 6"/></svg>
